X:231
T:Steirische Jodler und Taenze Nr. 1 - 48 (29.)
C:traditionell
A:Salzkammergut
S:MIDI erhalten von Christian Amon. Nach einer kopie im besitz von Johann Stoeckl eines manuscriptes. Stoeckl(zitiert von Amon): "diese sammlung wurde 1935 im hause der familie Hohenlohe-Schillingfuerst gefunden. Sie wurde von einem der beiden brueder Steinegger 1866 verfasst. Die originale sind im Ausseer Kammerhofmuseum".
M:3/4
L:1/8
K:G
V:1
db |\
a2 Bg gf | fe e2 ec' | b2 ca ag | gf f2 fe' |\
d'2 fc' c'b | bg gd dB | ca fd c'f | g4 |*
V:2
Bg |\
f2 ge ed | dc c2 ca | g2 Af fe | ed d2 dc' |\
b2 da a2 | gd dB BG | Af dA ad | B4 |*
